X:274
T:Laura Lynn Cunningham
M:4/4
L:1/8
R:reel
D:Lunasa: Otherworld
Z:Jim Rolfe
K:Bm
F~B3 A~c3|d2fd eAcA|F~B3 FBBc|Acef c2
[1 BA|F~B3 A~c3|d2fd eAcA|B2fB ecAB|BAdc ~B3A:|
[2 ba|bfab efaf|eAcd- dcBA|BF3 ABce|~f2ec B3z||
B2c/B/A B~F3|EFAB ceae|f~B3 FBBA|Acef c2BA|
BbbB aafe|cfec ~ecBc|B~F3 ABce|f2ec B3A:|
